symbols/web/calendar_today/materialsymbolsrounded/calendar_today_wght500fill1_40px.svg

<svg xmlns="http://www.w3.org/2000/svg" height="40" width="40"><path d="M7.875 36.958q-1.292 0-2.229-.937-.938-.938-.938-2.229V9q0-1.292.938-2.229.937-.938 2.229-.938h2.25V4.542q0-.625.458-1.063.459-.437 1.084-.437.666 0 1.125.458.458.458.458 1.083v1.25h13.5V4.542q0-.625.458-1.063.459-.437 1.084-.437.666 0 1.125.458.458.458.458 1.083v1.25h2.25q1.292 0 2.229.938.938.937.938 2.229v24.792q0 1.291-.938 2.229-.937.937-2.229.937Zm0-3.166h24.25V16.375H7.875v17.417Z"/></svg>

<svg xmlns="http://www.w3.org/2000/svg" height="40" width="40"><path d="M7.875 36.958Q6.583 36.958 5.646 36.021Q4.708 35.083 4.708 33.792V9Q4.708 7.708 5.646 6.771Q6.583 5.833 7.875 5.833H10.125V4.542Q10.125 3.917 10.583 3.479Q11.042 3.042 11.667 3.042Q12.333 3.042 12.792 3.5Q13.25 3.958 13.25 4.583V5.833H26.75V4.542Q26.75 3.917 27.208 3.479Q27.667 3.042 28.292 3.042Q28.958 3.042 29.417 3.5Q29.875 3.958 29.875 4.583V5.833H32.125Q33.417 5.833 34.354 6.771Q35.292 7.708 35.292 9V33.792Q35.292 35.083 34.354 36.021Q33.417 36.958 32.125 36.958ZM7.875 33.792H32.125Q32.125 33.792 32.125 33.792Q32.125 33.792 32.125 33.792V16.375H7.875V33.792Q7.875 33.792 7.875 33.792Q7.875 33.792 7.875 33.792Z"/></svg>
